docs/.gitbook/assets/icon-fountain-tip-16@light.svg

<svg width="32" height="32" viewBox="0 0 16 16" fill="none" xmlns="http://www.w3.org/2000/svg">
<rect x="0" y="0" width="16" height="16" fill="#fff"/>
<path fill-rule="evenodd" clip-rule="evenodd" d="M8.00002 1C8.24579 1 8.47596 1.12041 8.61612 1.3223L13.525 8.39353C14.211 9.38165 14.1474 10.6672 13.3773 11.5903L10.7577 14.7304C10.6152 14.9013 10.4043 15 10.1818 15H5.81823C5.59578 15 5.38481 14.9013 5.24231 14.7304L2.62278 11.5903C1.85266 10.6672 1.78907 9.38165 2.47503 8.39353L7.38392 1.3223C7.52408 1.12041 7.75425 1 8.00002 1ZM7.25002 4.14555L3.70722 9.24893C3.41016 9.67684 3.43248 10.2193 3.77461 10.6294L6.16927 13.5H9.83077L12.2254 10.6294C12.5676 10.2193 12.5899 9.67684 12.2928 9.24893L8.75002 4.14555V9.25C8.75002 9.66421 8.41423 10 8.00002 10C7.58581 10 7.25002 9.66421 7.25002 9.25V4.14555Z" fill="#000"/>
</svg>

<svg xmlns="http://www.w3.org/2000/svg" width="32" height="32" fill="none" viewBox="0 0 16 16"><path fill="#fff" d="M0 0h16v16H0z"/><path fill="#000" fill-rule="evenodd" d="M8 1a.75.75 0 0 1 .616.322l4.909 7.072a2.615 2.615 0 0 1-.148 3.196l-2.62 3.14a.75.75 0 0 1-.575.27H5.818a.75.75 0 0 1-.576-.27l-2.62-3.14a2.615 2.615 0 0 1-.147-3.196l4.909-7.072A.75.75 0 0 1 8 1m-.75 3.146L3.707 9.249c-.297.428-.275.97.068 1.38L6.169 13.5h3.662l2.394-2.87c.343-.41.365-.953.068-1.381L8.75 4.146V9.25a.75.75 0 0 1-1.5 0z" clip-rule="evenodd"/></svg>
